src/site/uploads/2021-04-28-max17043-battery-monitoring/max17043-connection-diagram.svg

<?xml version="1.0" encoding="UTF-8"?>
<!DOCTYPE svg PUBLIC "-//W3C//DTD SVG 1.1//EN" "http://www.w3.org/Graphics/SVG/1.1/DTD/svg11.dtd">
<svg xmlns="http://www.w3.org/2000/svg" xmlns:xlink="http://www.w3.org/1999/xlink" version="1.1" width="501px" height="421px" viewBox="-0.5 -0.5 501 421" content="&lt;mxfile host=&quot;Electron&quot; modified=&quot;2021-04-28T15:36:12.898Z&quot; agent=&quot;5.0 (Macintosh; Intel Mac OS X 10_16_0) AppleWebKit/537.36 (KHTML, like Gecko) draw.io/13.7.9 Chrome/85.0.4183.121 Electron/10.1.3 Safari/537.36&quot; version=&quot;13.7.9&quot; etag=&quot;sicYu4fgLhjS8pyAA5TZ&quot; type=&quot;device&quot;&gt;&lt;diagram id=&quot;XMZJGpJLIuI4Bckd0g7s&quot;&gt;1Vnbkto4EP0aPzIlWb4+DjDMbtUklaqpym4ehS2Ddo1FCTFAvj4yli/yBRsGQuAFq9VqpG6d0+3GQJPV/pXj9fILC0lsmCDcG2hqmCaEwJFfqeSQSXzXzAQLTkOlVAre6U+ihEBJtzQkG01RMBYLutaFAUsSEghNhjlnO10tYrH+q2u8IA3Be4DjpvQfGoplJvVsUMr/InSxFMWB1cwK58pKsFnikO0qIvRioAlnTGRPq/2ExKnzcr9k62Yds8XGOEnEkAXK7xtxyM9GQnlUNWRcLNmCJTh+KaVjzrZJSFIDQI5KnTfG1lIIpfA/IsRBxQ1vBZOipVjFapbsqfi38vwjNfVk2mo43SvTx8EhHyThcxo6OUxYQjLJjMaxmt8Izv4nExYzfjwIms2A/BQzeaCQlEQsEWp3MP3VzAnpyTU3btiWB7WrV3UtLAImbzphKyL4QapwEmNBP3RbWF25RaFXLP3GqLRoAgUPC3jZEgUOEwHdhMB8QYRaVcZWPlS2UYqOEW+PPsoMf+B4q3b7/e+vrTfiDc8lhrUo4pguEvkcSH8Q6fPxB+GCSpA8q4kVDcPswpAN/YnnR3tpQNbp1o+HsceGPe0MSGqQ7I0WRCtjJY6qYTHbw6IMgScEkKV5WNn+bNx0oyPo6xZYFG3IZyNm3QWvidxfCtgReALydipJBltYjEvcHkeH6ugb4VQeM70nZ6D5FGYbeEdI4f0MNGdQyln6RgiXB8WHioK6/p0XyfSATgCWrXP4efryIdvBpXfObrDE69fpw7OE1cMSLvB9HdDoKjTh6tRj3oAknLuSBND5we6lhzPzumfOkeMM4ohImqmsDG3ihVY3Q/wWNmjCF9Xg69XyfUZcjXx/Lq0gs/13umilro/QaX0LntT/NA25DRp6nz4/PA05PTTkIQ/pbv0cCxXVyS2Ix7sP8ZxJIKHrzwe+GJysfGzfuaT0qZFSFBEnCP7AsqXlxUTPXcge9mJyNlGBGpGAHqKq69s9RNVxjsH6ln9VYvObxDZ5e3hi83qIzXE9Ry+FrlJewVp9VTNwFZrLYViJ2Gx7bHG94q2Ebz10OsXtllSQ9zU+gnrH8VoPaL1mwcSLgjYacwKPzKNTYRpACfmCem2QQ2pXtrdgfuxltbVlgu4IaS4+5U/Y8OcXGnAmr5k8dBzLe/14Lq2XQ60uRS0uNeu0epFL79rYqzTzfhiVXl5HYy9/cVCr8gwLe7PruT2E7h7hkOTrtCTfG3QFB4e42b0zzPHD5w3Y174zbRfq+fgqiWNkP9ma2VGeSq6bO+7TwSuA6V4ETPfGwHxE+DXbYqPHB19fVwy5UG9z29ep2mADfOgW4HMaMRtjIUNweMACo16zIf+31mzNdswJH8IBPjzRu1Ms0pK+08913FlrokOr6U0btHjTusCbclj+xZvd4/KPcvTyCw==&lt;/diagram&gt;&lt;/mxfile&gt;" style="background-color: rgb(255, 255, 255);"><defs/><g><path d="M 150 90 L 328 90" fill="none" stroke="#ff0000" stroke-width="3" stroke-miterlimit="10" pointer-events="stroke"/><g transform="translate(-0.5 -0.5)"><switch><foreignObject style="overflow: visible; text-align: left;" pointer-events="none" width="100%" height="100%" requiredFeatures="http://www.w3.org/TR/SVG11/feature#Extensibility"><div xmlns="http://www.w3.org/1999/xhtml" style="display: flex; align-items: unsafe center; justify-content: unsafe center; width: 1px; height: 1px; padding-top: 71px; margin-left: 311px;"><div style="box-sizing: border-box; font-size: 0; text-align: center; "><div style="display: inline-block; font-size: 15px; font-family: Helvetica; color: #000000; line-height: 1.2; pointer-events: all; background-color: #ffffff; white-space: nowrap; ">VIN</div></div></div></foreignObject><text x="311" y="75" fill="#000000" font-family="Helvetica" font-size="15px" text-anchor="middle">VIN</text></switch></g><path d="M 150 105 L 200 105 L 328.96 105" fill="none" stroke="#330000" stroke-width="3" stroke-miterlimit="10" pointer-events="stroke"/><g transform="translate(-0.5 -0.5)"><switch><foreignObject style="overflow: visible; text-align: left;" pointer-events="none" width="100%" height="100%" requiredFeatures="http://www.w3.org/TR/SVG11/feature#Extensibility"><div xmlns="http://www.w3.org/1999/xhtml" style="display: flex; align-items: unsafe center; justify-content: unsafe center; width: 1px; height: 1px; padding-top: 121px; margin-left: 311px;"><div style="box-sizing: border-box; font-size: 0; text-align: center; "><div style="display: inline-block; font-size: 15px; font-family: Helvetica; color: #000000; line-height: 1.2; pointer-events: all; background-color: #ffffff; white-space: nowrap; ">GND</div></div></div></foreignObject><text x="311" y="125" fill="#000000" font-family="Helvetica" font-size="15px" text-anchor="middle">GND</text></switch></g><path d="M 150 140 L 240 140 L 240 190 L 330 190 L 330 185" fill="none" stroke="#82b366" stroke-width="3" stroke-miterlimit="10" pointer-events="stroke"/><g transform="translate(-0.5 -0.5)"><switch><foreignObject style="overflow: visible; text-align: left;" pointer-events="none" width="100%" height="100%" requiredFeatures="http://www.w3.org/TR/SVG11/feature#Extensibility"><div xmlns="http://www.w3.org/1999/xhtml" style="display: flex; align-items: unsafe center; justify-content: unsafe center; width: 1px; height: 1px; padding-top: 176px; margin-left: 317px;"><div style="box-sizing: border-box; font-size: 0; text-align: center; "><div style="display: inline-block; font-size: 15px; font-family: Helvetica; color: #000000; line-height: 1.2; pointer-events: all; background-color: #ffffff; white-space: nowrap; ">SDA</div></div></div></foreignObject><text x="317" y="180" fill="#000000" font-family="Helvetica" font-size="15px" text-anchor="middle">SDA</text></switch></g><path d="M 150 160 L 220 160 L 220 210 L 327 210 L 327 209 L 328.96 209" fill="none" stroke="#d79b00" stroke-width="3" stroke-miterlimit="10" pointer-events="stroke"/><g transform="translate(-0.5 -0.5)"><switch><foreignObject style="overflow: visible; text-align: left;" pointer-events="none" width="100%" height="100%" requiredFeatures="http://www.w3.org/TR/SVG11/feature#Extensibility"><div xmlns="http://www.w3.org/1999/xhtml" style="display: flex; align-items: unsafe center; justify-content: unsafe center; width: 1px; height: 1px; padding-top: 221px; margin-left: 311px;"><div style="box-sizing: border-box; font-size: 0; text-align: center; "><div style="display: inline-block; font-size: 15px; font-family: Helvetica; color: #000000; line-height: 1.2; pointer-events: all; background-color: #ffffff; white-space: nowrap; ">SCL</div></div></div></foreignObject><text x="311" y="225" fill="#000000" font-family="Helvetica" font-size="15px" text-anchor="middle">SCL</text></switch></g><rect x="40" y="60" width="110" height="120" fill="#dae8fc" stroke="#6c8ebf" pointer-events="all"/><g transform="translate(-0.5 -0.5)"><switch><foreignObject style="overflow: visible; text-align: left;" pointer-events="none" width="100%" height="100%" requiredFeatures="http://www.w3.org/TR/SVG11/feature#Extensibility"><div xmlns="http://www.w3.org/1999/xhtml" style="display: flex; align-items: unsafe center; justify-content: unsafe center; width: 108px; height: 1px; padding-top: 120px; margin-left: 41px;"><div style="box-sizing: border-box; font-size: 0; text-align: center; "><div style="display: inline-block; font-size: 12px; font-family: Helvetica; color: #000000; line-height: 1.2; pointer-events: all; white-space: normal; word-wrap: normal; ">Fuel Gauge</div></div></div></foreignObject><text x="95" y="124" fill="#000000" font-family="Helvetica" font-size="12px" text-anchor="middle">Fuel Gauge</text></switch></g><rect x="330" y="60" width="130" height="250" fill="#dae8fc" stroke="#6c8ebf" pointer-events="all"/><g transform="translate(-0.5 -0.5)"><switch><foreignObject style="overflow: visible; text-align: left;" pointer-events="none" width="100%" height="100%" requiredFeatures="http://www.w3.org/TR/SVG11/feature#Extensibility"><div xmlns="http://www.w3.org/1999/xhtml" style="display: flex; align-items: unsafe center; justify-content: unsafe center; width: 128px; height: 1px; padding-top: 185px; margin-left: 331px;"><div style="box-sizing: border-box; font-size: 0; text-align: center; "><div style="display: inline-block; font-size: 12px; font-family: Helvetica; color: #000000; line-height: 1.2; pointer-events: all; white-space: normal; word-wrap: normal; ">Microcontroller</div></div></div></foreignObject><text x="395" y="189" fill="#000000" font-family="Helvetica" font-size="12px" text-anchor="middle">Microcontroller</text></switch></g><path d="M 67.5 250 L 67.5 180" fill="none" stroke="#ff0000" stroke-width="3" stroke-miterlimit="10" pointer-events="stroke"/><g transform="translate(-0.5 -0.5)"><switch><foreignObject style="overflow: visible; text-align: left;" pointer-events="none" width="100%" height="100%" requiredFeatures="http://www.w3.org/TR/SVG11/feature#Extensibility"><div xmlns="http://www.w3.org/1999/xhtml" style="display: flex; align-items: unsafe center; justify-content: unsafe center; width: 1px; height: 1px; padding-top: 190px; margin-left: 60px;"><div style="box-sizing: border-box; font-size: 0; text-align: center; "><div style="display: inline-block; font-size: 15px; font-family: Helvetica; color: #000000; line-height: 1.2; pointer-events: all; background-color: #ffffff; white-space: nowrap; ">+</div></div></div></foreignObject><text x="60" y="194" fill="#000000" font-family="Helvetica" font-size="15px" text-anchor="middle">+</text></switch></g><path d="M 122.5 250 L 122.5 180" fill="none" stroke="#000000" stroke-width="3" stroke-miterlimit="10" pointer-events="stroke"/><g transform="translate(-0.5 -0.5)"><switch><foreignObject style="overflow: visible; text-align: left;" pointer-events="none" width="100%" height="100%" requiredFeatures="http://www.w3.org/TR/SVG11/feature#Extensibility"><div xmlns="http://www.w3.org/1999/xhtml" style="display: flex; align-items: unsafe center; justify-content: unsafe center; width: 1px; height: 1px; padding-top: 190px; margin-left: 130px;"><div style="box-sizing: border-box; font-size: 0; text-align: center; "><div style="display: inline-block; font-size: 15px; font-family: Helvetica; color: #000000; line-height: 1.2; pointer-events: all; background-color: #ffffff; white-space: nowrap; ">-</div></div></div></foreignObject><text x="130" y="194" fill="#000000" font-family="Helvetica" font-size="15px" text-anchor="middle">-</text></switch></g><rect x="40" y="250" width="110" height="120" fill="#dae8fc" stroke="#6c8ebf" pointer-events="all"/><g transform="translate(-0.5 -0.5)"><switch><foreignObject style="overflow: visible; text-align: left;" pointer-events="none" width="100%" height="100%" requiredFeatures="http://www.w3.org/TR/SVG11/feature#Extensibility"><div xmlns="http://www.w3.org/1999/xhtml" style="display: flex; align-items: unsafe center; justify-content: unsafe center; width: 108px; height: 1px; padding-top: 310px; margin-left: 41px;"><div style="box-sizing: border-box; font-size: 0; text-align: center; "><div style="display: inline-block; font-size: 12px; font-family: Helvetica; color: #000000; line-height: 1.2; pointer-events: all; white-space: normal; word-wrap: normal; ">Battery</div></div></div></foreignObject><text x="95" y="314" fill="#000000" font-family="Helvetica" font-size="12px" text-anchor="middle">Battery</text></switch></g><rect x="0" y="0" width="500" height="420" rx="63" ry="63" fill="none" stroke="#ffffff" pointer-events="all"/></g><switch><g requiredFeatures="http://www.w3.org/TR/SVG11/feature#Extensibility"/><a transform="translate(0,-5)" xlink:href="https://desk.draw.io/support/solutions/articles/16000042487" target="_blank"><text text-anchor="middle" font-size="10px" x="50%" y="100%">Viewer does not support full SVG 1.1</text></a></switch></svg>

<svg xmlns="http://www.w3.org/2000/svg" xmlns:xlink="http://www.w3.org/1999/xlink" width="501" height="421" style="background-color:#fff" viewBox="-0.5 -0.5 501 421"><path fill="none" stroke="red" stroke-miterlimit="10" stroke-width="3" d="M150 90h178" pointer-events="stroke"/><switch transform="translate(-.5 -.5)"><foreignObject width="100%" height="100%" pointer-events="none" requiredFeatures="http://www.w3.org/TR/SVG11/feature#Extensibility" style="overflow:visible;text-align:left"><div xmlns="http://www.w3.org/1999/xhtml" style="display:flex;align-items:unsafe center;justify-content:unsafe center;width:1px;height:1px;padding-top:71px;margin-left:311px"><div style="box-sizing:border-box;font-size:0;text-align:center"><div style="display:inline-block;font-size:15px;font-family:Helvetica;color:#000;line-height:1.2;pointer-events:all;background-color:#fff;white-space:nowrap">VIN</div></div></div></foreignObject><text x="311" y="75" font-family="Helvetica" font-size="15" text-anchor="middle">VIN</text></switch><path fill="none" stroke="#300" stroke-miterlimit="10" stroke-width="3" d="M150 105h178.96" pointer-events="stroke"/><switch transform="translate(-.5 -.5)"><foreignObject width="100%" height="100%" pointer-events="none" requiredFeatures="http://www.w3.org/TR/SVG11/feature#Extensibility" style="overflow:visible;text-align:left"><div xmlns="http://www.w3.org/1999/xhtml" style="display:flex;align-items:unsafe center;justify-content:unsafe center;width:1px;height:1px;padding-top:121px;margin-left:311px"><div style="box-sizing:border-box;font-size:0;text-align:center"><div style="display:inline-block;font-size:15px;font-family:Helvetica;color:#000;line-height:1.2;pointer-events:all;background-color:#fff;white-space:nowrap">GND</div></div></div></foreignObject><text x="311" y="125" font-family="Helvetica" font-size="15" text-anchor="middle">GND</text></switch><path fill="none" stroke="#82b366" stroke-miterlimit="10" stroke-width="3" d="M150 140h90v50h90v-5" pointer-events="stroke"/><switch transform="translate(-.5 -.5)"><foreignObject width="100%" height="100%" pointer-events="none" requiredFeatures="http://www.w3.org/TR/SVG11/feature#Extensibility" style="overflow:visible;text-align:left"><div xmlns="http://www.w3.org/1999/xhtml" style="display:flex;align-items:unsafe center;justify-content:unsafe center;width:1px;height:1px;padding-top:176px;margin-left:317px"><div style="box-sizing:border-box;font-size:0;text-align:center"><div style="display:inline-block;font-size:15px;font-family:Helvetica;color:#000;line-height:1.2;pointer-events:all;background-color:#fff;white-space:nowrap">SDA</div></div></div></foreignObject><text x="317" y="180" font-family="Helvetica" font-size="15" text-anchor="middle">SDA</text></switch><path fill="none" stroke="#d79b00" stroke-miterlimit="10" stroke-width="3" d="M150 160h70v50h107v-1h1.96" pointer-events="stroke"/><switch transform="translate(-.5 -.5)"><foreignObject width="100%" height="100%" pointer-events="none" requiredFeatures="http://www.w3.org/TR/SVG11/feature#Extensibility" style="overflow:visible;text-align:left"><div xmlns="http://www.w3.org/1999/xhtml" style="display:flex;align-items:unsafe center;justify-content:unsafe center;width:1px;height:1px;padding-top:221px;margin-left:311px"><div style="box-sizing:border-box;font-size:0;text-align:center"><div style="display:inline-block;font-size:15px;font-family:Helvetica;color:#000;line-height:1.2;pointer-events:all;background-color:#fff;white-space:nowrap">SCL</div></div></div></foreignObject><text x="311" y="225" font-family="Helvetica" font-size="15" text-anchor="middle">SCL</text></switch><path fill="#dae8fc" stroke="#6c8ebf" d="M40 60h110v120H40z" pointer-events="all"/><switch transform="translate(-.5 -.5)"><foreignObject width="100%" height="100%" pointer-events="none" requiredFeatures="http://www.w3.org/TR/SVG11/feature#Extensibility" style="overflow:visible;text-align:left"><div xmlns="http://www.w3.org/1999/xhtml" style="display:flex;align-items:unsafe center;justify-content:unsafe center;width:108px;height:1px;padding-top:120px;margin-left:41px"><div style="box-sizing:border-box;font-size:0;text-align:center"><div style="display:inline-block;font-size:12px;font-family:Helvetica;color:#000;line-height:1.2;pointer-events:all;white-space:normal;word-wrap:normal">Fuel Gauge</div></div></div></foreignObject><text x="95" y="124" font-family="Helvetica" font-size="12" text-anchor="middle">Fuel Gauge</text></switch><path fill="#dae8fc" stroke="#6c8ebf" d="M330 60h130v250H330z" pointer-events="all"/><switch transform="translate(-.5 -.5)"><foreignObject width="100%" height="100%" pointer-events="none" requiredFeatures="http://www.w3.org/TR/SVG11/feature#Extensibility" style="overflow:visible;text-align:left"><div xmlns="http://www.w3.org/1999/xhtml" style="display:flex;align-items:unsafe center;justify-content:unsafe center;width:128px;height:1px;padding-top:185px;margin-left:331px"><div style="box-sizing:border-box;font-size:0;text-align:center"><div style="display:inline-block;font-size:12px;font-family:Helvetica;color:#000;line-height:1.2;pointer-events:all;white-space:normal;word-wrap:normal">Microcontroller</div></div></div></foreignObject><text x="395" y="189" font-family="Helvetica" font-size="12" text-anchor="middle">Microcontroller</text></switch><path fill="none" stroke="red" stroke-miterlimit="10" stroke-width="3" d="M67.5 250v-70" pointer-events="stroke"/><switch transform="translate(-.5 -.5)"><foreignObject width="100%" height="100%" pointer-events="none" requiredFeatures="http://www.w3.org/TR/SVG11/feature#Extensibility" style="overflow:visible;text-align:left"><div xmlns="http://www.w3.org/1999/xhtml" style="display:flex;align-items:unsafe center;justify-content:unsafe center;width:1px;height:1px;padding-top:190px;margin-left:60px"><div style="box-sizing:border-box;font-size:0;text-align:center"><div style="display:inline-block;font-size:15px;font-family:Helvetica;color:#000;line-height:1.2;pointer-events:all;background-color:#fff;white-space:nowrap">+</div></div></div></foreignObject><text x="60" y="194" font-family="Helvetica" font-size="15" text-anchor="middle">+</text></switch><path fill="none" stroke="#000" stroke-miterlimit="10" stroke-width="3" d="M122.5 250v-70" pointer-events="stroke"/><switch transform="translate(-.5 -.5)"><foreignObject width="100%" height="100%" pointer-events="none" requiredFeatures="http://www.w3.org/TR/SVG11/feature#Extensibility" style="overflow:visible;text-align:left"><div xmlns="http://www.w3.org/1999/xhtml" style="display:flex;align-items:unsafe center;justify-content:unsafe center;width:1px;height:1px;padding-top:190px;margin-left:130px"><div style="box-sizing:border-box;font-size:0;text-align:center"><div style="display:inline-block;font-size:15px;font-family:Helvetica;color:#000;line-height:1.2;pointer-events:all;background-color:#fff;white-space:nowrap">-</div></div></div></foreignObject><text x="130" y="194" font-family="Helvetica" font-size="15" text-anchor="middle">-</text></switch><path fill="#dae8fc" stroke="#6c8ebf" d="M40 250h110v120H40z" pointer-events="all"/><switch transform="translate(-.5 -.5)"><foreignObject width="100%" height="100%" pointer-events="none" requiredFeatures="http://www.w3.org/TR/SVG11/feature#Extensibility" style="overflow:visible;text-align:left"><div xmlns="http://www.w3.org/1999/xhtml" style="display:flex;align-items:unsafe center;justify-content:unsafe center;width:108px;height:1px;padding-top:310px;margin-left:41px"><div style="box-sizing:border-box;font-size:0;text-align:center"><div style="display:inline-block;font-size:12px;font-family:Helvetica;color:#000;line-height:1.2;pointer-events:all;white-space:normal;word-wrap:normal">Battery</div></div></div></foreignObject><text x="95" y="314" font-family="Helvetica" font-size="12" text-anchor="middle">Battery</text></switch><rect width="500" height="420" fill="none" stroke="#fff" pointer-events="all" rx="63" ry="63"/><switch><g requiredFeatures="http://www.w3.org/TR/SVG11/feature#Extensibility"/><a xlink:href="https://desk.draw.io/support/solutions/articles/16000042487" target="_blank" transform="translate(0 -5)"><text x="50%" y="100%" font-size="10" text-anchor="middle">Viewer does not support full SVG 1.1</text></a></switch></svg>
